src/assets/femalePlaceHolder.svg

<?xml version="1.0" encoding="UTF-8"?>
<svg version="1.1" viewBox="0 0 1920 1920" width="1280" height="1280" xmlns="http://www.w3.org/2000/svg">
<path transform="translate(0)" d="m0 0h1920v1920h-1920z" fill="#D9D9D9"/>
<path transform="translate(0)" d="m0 0h1920v1920h-1920zm125 59v1802l97 1h701v-30l-2-58-3-44-3-21-4-11-7-11-7-9h-2l-2-4-7-7-8-7-9-9-8-7-14-12-17-14-17-13-14-11-9-9-6-12-3-11v-26l3-22 5-26 3-12-6 4-8 8-11 14-15 20-13 19-26 39-15 23-2-15-3-34-10-56-19-58-8-26-1-6 4-8 14-15 31-31 7-10 10-16 10-11 11-7 13-5 28-7 8-4 1-1v-36l-2-88-2-7-11-9-24-24-9-11-11-13-14-20-12-19-10-18-13-26-13-32-6-16h-10l-14-3-12-5-16-9-14-11-13-12-12-13-13-17-12-19-11-21-8-21-5-21-1-6v-27l4-17 8-16 8-10 7-7 11-7 11-3 11 1 10 5 10 9 9 13 6 10 11 25 11 34 7 29h1l1-33 1-80 3 1 39 3 26 1h27l38-2 35-4 27-5 25-6 26-8 19-7 20-9 25-13 22-14 18-14 10-9 8-7 15-15 18-22 11-16 12-20 8-16 7-15 9-25 1-1v13l3 21 6 21 10 25 11 23 14 24 11 18 11 16 12 17 16 21 26 32 9 11 11 12 16 16 8 7 5 5 5 6 4 13 2-3 12-36 10-22 10-16 11-12 10-6 6-2h11l11 4 9 7 6 5 10 13 7 16 3 13 1 15-2 21-6 23-8 20-11 21-12 18-10 13-11 12-7 8-8 7-10 8-15 10-16 7-11 3-8 1-11 31-13 30-11 22-16 27-13 19-10 13-9 11-12 13-9 10-10 9-11 10-7 5-4 166 3-3 7-16 1-4v-7l-4-8 14 7 17 10 14 10 6 6h2l2 4 10 11 10 15 7 8 8 7 17 12 18 13 8 7 1 2v6l-19 49-15 39-10 53-5 48-1 10-8-11-13-19-13-18-10-14-24-32-11-13-7-8-8-9-7-5-2 1 7 23 4 21 1 7v32l-4 16-7 13-9 8-18 12-19 14-18 14-13 11-11 11-7 8-15 16-18 20-5 24-7 36-2 40-1 29v21h823v-1802z" fill="#F9F8F8"/>
<path transform="translate(915,176)" d="m0 0h82l44 3 31 4 27 5 28 7 23 8 23 11 13 9 10 9 2 4 7 1 16 6 23 12 16 11 14 11 13 12 17 17 9 11 13 17 14 21 10 17 14 27 10 22 11 28 13 40 10 38 9 43 7 44 6 38 7 33 10 37 15 44 11 28 15 35 18 40 12 28 10 26 8 25 5 23 2 13 1 13v18l-2 19-5 23-7 21-9 20-9 17-13 21-13 18-10 13-9 11-12 14-11 12-7 8-12 12-7 8-12 12-8 7-14 14-8 7-9 8-23 12-16 8-34 15-48 20-38 15-5 1-11-14-6-6v-2l-4-2-9-8-16-10-23-13 1 3 2 5v7l-5 14-5 9-1-2 4-164 10-8 13-12 12-11 7-8 10-11 13-17 10-14 12-19 12-21 11-22 13-31 9-26 16-3 15-6 15-9 10-8 10-9 8-7 7-8 10-12 12-17 12-21 8-17 7-21 4-20 1-16-2-18-5-16-6-11-11-13-12-9-11-4h-11l-10 4-8 6-9 10-8 13-8 16-8 20-9 28-2-3-3-10-6-8-8-7-12-11-16-16-9-11-13-16-14-17-15-20-13-18-16-24-11-18-9-16-11-21-11-27-6-20-3-15-1-10v-15l-8 23-8 18-8 16-9 16-8 12-14 19-10 11-7 8-15 15-22 18-17 12-24 14-22 11-25 10-28 9-24 6-26 5-30 4-24 2-25 1h-27l-42-2-23-2-3-1-1 80-1 33h-1l-9-36-11-32-9-20-11-18-10-11-11-7-8-2-11 1-9 4-9 6-9 9-9 14-5 12-3 14v27l4 20 6 18 8 18 11 20 11 16 13 16 12 13 12 11 17 12 17 9 13 4 7 1h10l13 34 11 24 12 24 14 23 11 16 9 12 9 11 12 14 22 22 11 9 1 11 2 83v36l-6 4-18 5-19 5-14 7-9 8-9 12-10 16-10-4-34-16-26-13-22-12-25-14-20-12-23-15-18-12-18-13-16-12-17-14-10-9-8-7-15-14-11-11-7-8-13-15-14-19-12-19-11-21-8-21-6-21-3-20v-33l4-24 12-40 18-61 23-79 22-75 20-65 20-61 18-50 16-40 13-30 14-30 11-22 13-23 13-22 16-24 10-14 11-14 11-13 18-20 13-13 8-7 13-11 16-12 18-12 17-10 17-9 28-12 27-9 28-7 27-5 26-3z" fill="#7C7C7C"/>
<path transform="translate(1100,514)" d="m0 0h1v18l3 21 6 21 10 25 11 23 14 24 11 18 11 16 12 17 16 21 26 32 9 11 11 12 15 15 8 7 5 4 6 8 3 10 2-4 11-32 10-22 10-16 11-12 9-6 8-3h11l11 4 9 7 7 6 10 13 7 16 3 13 1 15-2 21-6 23-8 20-11 21-12 18-10 13-11 12-7 8-10 9-13 10-15 9-15 6-8 2h-8l-2 9-10 27-12 27-10 20-16 27-13 19-10 13-9 11-12 13-9 10-12 11-10 9-24 18-22 14-23 12-16 8-17 8-24 9-16 4-11 2h-45l-16-3-27-9-16-7-21-10-23-13-16-10-17-12-20-16-13-12-18-18-9-11-11-13-14-20-12-19-10-18-13-26-13-32-5-14v-2l-2 1h-8l-14-3-12-5-16-9-14-11-13-12-13-14-13-17-12-19-11-21-8-21-5-21-1-6v-27l4-17 8-16 8-10 8-8 11-7 11-3 11 1 10 5 11 10 9 13 6 10 11 25 11 34 6 24 1-28 1-70 1-10 42 3 26 1h27l38-2 35-4 27-5 25-6 26-8 19-7 20-9 25-13 22-14 18-14 10-9 8-7 14-14 18-22 11-16 12-20 8-16 7-15 9-25z" fill="#F9F8F8"/>
<path transform="translate(1268,1411)" d="m0 0 6 2 360 180 12 11 8 8 12 17 8 14 9 19 8 24 5 23 3 24 1 18v17l-2 32v18l1 43h-727v-21l2-53 1-16 11-57 3-5 14-15 7-8 14-15 11-12 7-7 14-11 18-14 18-13 18-12 7-8 6-13 3-13v-32l-4-23-5-19-3-10 5 2 10 9 7 8 14 17 12 16 14 19 13 18 14 20 13 19 1 1 5-51 9-50 3-13 14-36z" fill="#A4A8A8"/>
<path transform="translate(653,1410)" d="m0 0 2 1 16 50 12 37 10 56 4 45 1 4 15-23 26-39 16-23 16-21 11-13 9-8 1 2-5 19-5 29-1 10v26l4 14 6 10 10 10 20 15 17 14 11 9 14 12 15 14 17 16v2h2l10 13 7 14 3 15 3 37 2 40 1 35v29h-700v-25l1-34-2-24v-37l3-29 5-24 9-27 8-18 11-18 9-12 11-12 9-8z" fill="#A4A8A8"/>
<path transform="translate(789,1164)" d="m0 0 5 3 17 13 15 10 19 11 24 13 22 10 25 9 16 4 7 1h45l24-5 22-8 18-8 40-20 22-14 11-8 8-6h1v39l-3 127-11 22-13 23-10 19-9 15-12 24h-2l-1 6-3 4-1-1h-225l-2 1-7-16-12-26-15-25-10-17-2-6h-2l-9-23-2-9v-15l4-9 6-8 2-1v-36l-2-88z" fill="#D8D8D8"/>
<path transform="translate(790,1295)" d="m0 0h2l1 4v51l-1 7h-2l-8-19-3-12v-15l4-9 5-6z" fill="#7F7F7F"/>
<path transform="translate(1127,1291)" d="m0 0 1 3h5l4 10v7l-5 14-5 9-1-2z" fill="#828282"/>
</svg>

<?xml version="1.0" encoding="UTF-8"?>
<svg xmlns="http://www.w3.org/2000/svg" viewBox="0 0 1920 1920" width="1280px" height="1280px">
  <path transform="matrix(1, 0, 0, 1, 0, -1.4210854715202004e-14)" d="m0 0h1920v1920h-1920z" fill="#D9D9D9"/>
  <path transform="matrix(1, 0, 0, 1, 0, -1.4210854715202004e-14)" d="M 642.337 418.103 L 1298.685 495.184 L 1100.144 1849.927 L 703.067 1849.926 C 771.764 1849.102 642.337 418.103 642.337 418.103 Z M 622.519 418.709 C 622.519 418.709 1679.997 1446.142 337.555 1762.898 L 222 1862 L 923 1862 L 923 1832 L 921 1774 L 918 1730 L 915 1709 L 911 1698 L 904 1687 L 897 1678 L 895 1678 L 893 1674 L 886 1667 L 878 1660 L 869 1651 L 861 1644 L 847 1632 L 830 1618 L 813 1605 L 799 1594 L 790 1585 L 784 1573 L 781 1562 L 781 1536 L 784 1514 L 789 1488 L 792 1476 L 786 1480 L 778 1488 L 767 1502 L 752 1522 L 739 1541 L 713 1580 L 698 1603 L 696 1588 L 693 1554 L 683 1498 L 664 1440 L 656 1414 L 655 1408 L 659 1400 L 673 1385 L 704 1354 L 711 1344 L 721 1328 L 731 1317 L 742 1310 L 755 1305 L 783 1298 L 791 1294 L 792 1293 L 792 1257 L 790 1169 L 788 1162 L 777 1153 L 753 1129 L 744 1118 L 733 1105 L 719 1085 L 707 1066 L 697 1048 L 684 1022 L 671 990 L 665 974 L 655 974 L 641 971 L 629 966 L 613 957 L 599 946 L 586 934 L 574 921 L 561 904 L 549 885 L 538 864 L 530 843 L 525 822 L 524 816 L 524 789 L 528 772 L 536 756 L 544 746 L 551 739 L 562 732 L 573 729 L 584 730 L 594 735 L 604 744 L 613 757 L 619 767 L 630 792 L 641 826 L 648 855 L 649 855 L 650 822 L 651 742 L 654 743 L 693 746 L 719 747 L 746 747 L 784 745 L 819 741 L 846 736 L 871 730 L 897 722 L 916 715 L 936 706 L 961 693 L 983 679 L 1001 665 L 1011 656 L 1019 649 L 1034 634 L 1052 612 L 1063 596 L 1075 576 L 1083 560 L 1090 545 L 1099 520 L 1100 519 L 1100 532 L 1103 553 L 1109 574 L 1119 599 L 1130 622 L 1144 646 L 1155 664 L 1166 680 L 1178 697 L 1194 718 L 1220 750 L 1229 761 L 1240 773 L 1256 789 L 1264 796 L 1269 801 L 1274 807 L 1278 820 L 1280 817 L 1292 781 L 1302 759 L 1312 743 L 1323 731 L 1333 725 L 1339 723 L 1350 723 L 1361 727 L 1370 734 L 1376 739 L 1386 752 L 1393 768 L 1396 781 L 1397 796 L 1395 817 L 1389 840 L 1381 860 L 1370 881 L 1358 899 L 1348 912 L 1337 924 L 1330 932 L 1322 939 L 1312 947 L 1297 957 L 1281 964 L 1270 967 L 1262 968 L 1251 999 L 1238 1029 L 1227 1051 L 1211 1078 L 1198 1097 L 1188 1110 L 1179 1121 L 1167 1134 L 1158 1144 L 1148 1153 L 1137 1163 L 1130 1168 L 1126 1334 L 1129 1331 L 1136 1315 L 1137 1311 L 1137 1304 L 1133 1296 L 1147 1303 L 1164 1313 L 1178 1323 L 1184 1329 L 1186 1329 L 1188 1333 L 1198 1344 L 1208 1359 L 1215 1367 L 1223 1374 L 1240 1386 L 1258 1399 L 1266 1406 L 1267 1408 L 1267 1414 L 1248 1463 L 1233 1502 L 1223 1555 L 1218 1603 L 1217 1613 L 1209 1602 L 1196 1583 L 1183 1565 L 1173 1551 L 1149 1519 L 1138 1506 L 1131 1498 L 1123 1489 L 1116 1484 L 1114 1485 L 1121 1508 L 1125 1529 L 1126 1536 L 1126 1568 L 1122 1584 L 1115 1597 L 1106 1605 L 1088 1617 L 1069 1631 L 1051 1645 L 1038 1656 L 1027 1667 L 1020 1675 L 1005 1691 L 987 1711 L 982 1735 L 975 1771 L 973 1811 L 972 1840 L 972 1861 L 1117.626 1793.263 L 1248.429 367.322 L 622.519 418.709 Z" fill="#F9F8F8"/>
  <path transform="matrix(1, 0, 0, 1, 915, 176)" d="m0 0h82l44 3 31 4 27 5 28 7 23 8 23 11 13 9 10 9 2 4 7 1 16 6 23 12 16 11 14 11 13 12 17 17 9 11 13 17 14 21 10 17 14 27 10 22 11 28 13 40 10 38 9 43 7 44 6 38 7 33 10 37 15 44 11 28 15 35 18 40 12 28 10 26 8 25 5 23 2 13 1 13v18l-2 19-5 23-7 21-9 20-9 17-13 21-13 18-10 13-9 11-12 14-11 12-7 8-12 12-7 8-12 12-8 7-14 14-8 7-9 8-23 12-16 8-34 15-48 20-38 15-5 1-11-14-6-6v-2l-4-2-9-8-16-10-23-13 1 3 2 5v7l-5 14-5 9-1-2 4-164 10-8 13-12 12-11 7-8 10-11 13-17 10-14 12-19 12-21 11-22 13-31 9-26 16-3 15-6 15-9 10-8 10-9 8-7 7-8 10-12 12-17 12-21 8-17 7-21 4-20 1-16-2-18-5-16-6-11-11-13-12-9-11-4h-11l-10 4-8 6-9 10-8 13-8 16-8 20-9 28-2-3-3-10-6-8-8-7-12-11-16-16-9-11-13-16-14-17-15-20-13-18-16-24-11-18-9-16-11-21-11-27-6-20-3-15-1-10v-15l-8 23-8 18-8 16-9 16-8 12-14 19-10 11-7 8-15 15-22 18-17 12-24 14-22 11-25 10-28 9-24 6-26 5-30 4-24 2-25 1h-27l-42-2-23-2-3-1-1 80-1 33h-1l-9-36-11-32-9-20-11-18-10-11-11-7-8-2-11 1-9 4-9 6-9 9-9 14-5 12-3 14v27l4 20 6 18 8 18 11 20 11 16 13 16 12 13 12 11 17 12 17 9 13 4 7 1h10l13 34 11 24 12 24 14 23 11 16 9 12 9 11 12 14 22 22 11 9 1 11 2 83v36l-6 4-18 5-19 5-14 7-9 8-9 12-10 16-10-4-34-16-26-13-22-12-25-14-20-12-23-15-18-12-18-13-16-12-17-14-10-9-8-7-15-14-11-11-7-8-13-15-14-19-12-19-11-21-8-21-6-21-3-20v-33l4-24 12-40 18-61 23-79 22-75 20-65 20-61 18-50 16-40 13-30 14-30 11-22 13-23 13-22 16-24 10-14 11-14 11-13 18-20 13-13 8-7 13-11 16-12 18-12 17-10 17-9 28-12 27-9 28-7 27-5 26-3z" fill="#7C7C7C"/>
  <path transform="matrix(1, 0, 0, 1, 1100, 514)" d="m0 0h1v18l3 21 6 21 10 25 11 23 14 24 11 18 11 16 12 17 16 21 26 32 9 11 11 12 15 15 8 7 5 4 6 8 3 10 2-4 11-32 10-22 10-16 11-12 9-6 8-3h11l11 4 9 7 7 6 10 13 7 16 3 13 1 15-2 21-6 23-8 20-11 21-12 18-10 13-11 12-7 8-10 9-13 10-15 9-15 6-8 2h-8l-2 9-10 27-12 27-10 20-16 27-13 19-10 13-9 11-12 13-9 10-12 11-10 9-24 18-22 14-23 12-16 8-17 8-24 9-16 4-11 2h-45l-16-3-27-9-16-7-21-10-23-13-16-10-17-12-20-16-13-12-18-18-9-11-11-13-14-20-12-19-10-18-13-26-13-32-5-14v-2l-2 1h-8l-14-3-12-5-16-9-14-11-13-12-13-14-13-17-12-19-11-21-8-21-5-21-1-6v-27l4-17 8-16 8-10 8-8 11-7 11-3 11 1 10 5 11 10 9 13 6 10 11 25 11 34 6 24 1-28 1-70 1-10 42 3 26 1h27l38-2 35-4 27-5 25-6 26-8 19-7 20-9 25-13 22-14 18-14 10-9 8-7 14-14 18-22 11-16 12-20 8-16 7-15 9-25z" fill="#F9F8F8"/>
  <path transform="matrix(1, 0, 0, 1, 1268, 1411)" d="m0 0 6 2 360 180 12 11 8 8 12 17 8 14 9 19 8 24 5 23 3 24 1 18v17l-2 32v18l1 43h-727v-21l2-53 1-16 11-57 3-5 14-15 7-8 14-15 11-12 7-7 14-11 18-14 18-13 18-12 7-8 6-13 3-13v-32l-4-23-5-19-3-10 5 2 10 9 7 8 14 17 12 16 14 19 13 18 14 20 13 19 1 1 5-51 9-50 3-13 14-36z" fill="#A4A8A8"/>
  <path transform="matrix(1, 0, 0, 1, 653, 1410)" d="m0 0 2 1 16 50 12 37 10 56 4 45 1 4 15-23 26-39 16-23 16-21 11-13 9-8 1 2-5 19-5 29-1 10v26l4 14 6 10 10 10 20 15 17 14 11 9 14 12 15 14 17 16v2h2l10 13 7 14 3 15 3 37 2 40 1 35v29h-700v-25l1-34-2-24v-37l3-29 5-24 9-27 8-18 11-18 9-12 11-12 9-8z" fill="#A4A8A8"/>
  <path transform="matrix(1, 0, 0, 1, 789, 1164)" d="m0 0 5 3 17 13 15 10 19 11 24 13 22 10 25 9 16 4 7 1h45l24-5 22-8 18-8 40-20 22-14 11-8 8-6h1v39l-3 127-11 22-13 23-10 19-9 15-12 24h-2l-1 6-3 4-1-1h-225l-2 1-7-16-12-26-15-25-10-17-2-6h-2l-9-23-2-9v-15l4-9 6-8 2-1v-36l-2-88z" fill="#D8D8D8"/>
  <path transform="matrix(1, 0, 0, 1, 790, 1295)" d="m0 0h2l1 4v51l-1 7h-2l-8-19-3-12v-15l4-9 5-6z" fill="#7F7F7F"/>
  <path transform="matrix(1, 0, 0, 1, 1127, 1291)" d="m0 0 1 3h5l4 10v7l-5 14-5 9-1-2z" fill="#F9F8F8"/>
</svg>
